!!!OTL: Congci renmin danglejia
!!!ARE: Asia, China,ÿHenan Tanghe
!! IV, 107
!!!SCT: C1931
!!!YEM: Copyright 1995, estate of Helmut Schaffrath.
**kern
*ICvox
*Ivox
*M2/4
*k[f#c#g#]
*A:
{8b
4ee
8cc#
=1
4b
8a
8f#
=2
4b
8cc#
8ee
=3
8b
8b
4a
=4
2ggxxxxx#
=5
4ggx#
4r}
=6
{8f#
4cc#
8f#
=7
8a
8f#
4e
=8
4a
8.a
16f#
=9
8a
16a
16f#
4e
=10
2ggxxxxx#
=11
4ggx#
4r}
=12
{8f#
4e
8f#
=13
4a
8.a
16f#
=14
4b
8.cc#
16ee
=15
8b
8b
4a}
=16
{8f#
4e
8f#
=17
4a
4cc#
=18
4b
4a
=19
4a
8.b
16cc#
=20
4f#
8.e
16c#
=21
8e
4.e}
=22
{2ggxx#
8r
=23
2ggxx#
8r
=24
2ggxxxxx#
=25
4ggx#
4r}
=26
{8.f#
16a
8.f#
16a
=27
4.b
8cc#
=28
8.a
16b
8a
8f#
=29
2e}
=30
{8cc#
4cc#
16b
16cc#
=31
8a
16b
16cc#
4b
=32
8a
8f#
4e
=33
4a
8.a
16f#
=34
2e}
==
!!!AGN: Xiaodiao, Hanchuan diao
!!!AMT: simple duple
!!!AIN: vox
!!!EED: Helmut Schaffrath
!!!EEV: 1.0
*-
